X:1
T:Iste Confessor, 11.11.11.5
T:Iste Confessor, 11.11.11.5
T:Poitiers Antiphoner, 1746
T:Public Domain Courtesy of the Cyber Hymnal™
C:Poitiers Antiphoner, 1746
Z:Public Domain
Z:Courtesy of the Cyber Hymnal™
%%score ( 1 2 ) ( 3 4 )
L:1/8
M:4/4
K:F
V:1 treble 
V:2 treble 
V:3 bass 
V:4 bass 
V:1
 [A,D]4 [EA]2 [DF]2 | [DG]4 [^CA]4 | D3 [^CE] [DF]2 [DG]2 | ([DF]2 [^CE]2) D4 | D4 [EA]2 [DF]2 | %5
 [DG]4 [^CA]4 | [CA]3 [CG] [CA]2 [F=B]2 | (c2 =B2) [CA]4 | [Dd]4 [Fc]2 [Fd]2 | c2 B2 [FA]4 | %10
 [Cc]3 [CB] [CA]2 [FB]2 | (A2 G2) [DF]4 | [DA]4 D2 [DE]2 | ([DF]4 [^CE]4) | D8 |] %15
V:2
 x8 | x8 | D3 x5 | x4 D4 | D4 x4 | x8 | x8 | E4 x4 | x8 | G4 x4 | x8 | E4 x4 | x4 D2 x2 | x8 | %14
 D8 |] %15
V:3
 [D,F,]4 [^C,A,]2 [D,A,]2 | [B,,G,]4 [A,,E,]4 | [F,A,]3 [E,G,] [D,A,]2 [A,,B,]2 | %3
 (A,2 G,2) [D,F,]4 | [D,F,]4 [^C,A,]2 [D,A,]2 | [B,,G,]4 [A,,E,]4 | F,3 [C,E,] F,2 [D,D]2 | %7
 (A,2 ^G,2) [A,,A,]4 | [B,,F,]4 [F,A,]2 [D,A,]2 | G,2 C2 [F,C]4 | [E,G,]3 [E,G,] F,2 [B,,D]2 | %11
 (C2 B,2) [D,A,]4 | [F,,A,]4 [B,,F,]2 [G,,B,]2 | (A,6 G,2) | [D,F,]8 |] %15
V:4
 x8 | x8 | x8 | A,,4 x4 | x8 | x8 | F,3 F,2 x3 | E,4 x4 | x8 | E,4 x4 | x4 F,2 x2 | C,4 x4 | x8 | %13
 A,,8 | x8 |] %15

